src/components/00-materials/images-raw/Doctor Man.svg

<svg width="96" height="96" viewBox="0 0 96 96" fill="none" xmlns="http://www.w3.org/2000/svg">
<path d="M52.58 26.5843C48.93 26.5843 45.43 23.7643 44.02 20.4543C41.74 25.2443 39.02 29.0443 32.02 29.0443H25.14V38.8543C25.14 46.9843 30.14 53.5843 38.99 53.5843C47.84 53.5843 52.84 46.9543 52.84 38.8543V26.5843H52.58Z" stroke="#00008F" stroke-width="2" stroke-linecap="round" stroke-linejoin="round"/>
<path d="M52.84 40.0844C54.8311 38.7285 56.4502 36.8948 57.549 34.7512C58.6479 32.6075 59.1915 30.2225 59.13 27.8144V20.4544C59.1064 19.1439 58.5692 17.8952 57.6341 16.9769C56.699 16.0586 55.4406 15.5442 54.13 15.5444C52.4679 12.8604 50.1344 10.6563 47.36 9.14985C44.5856 7.6434 41.4663 6.88667 38.31 6.95437H36.82C34.4878 6.91999 32.1717 7.34587 30.0043 8.20762C27.8368 9.06938 25.8606 10.3501 24.1887 11.9765C22.5168 13.6029 21.1821 15.543 20.2608 17.6858C19.3396 19.8286 18.85 22.1321 18.82 24.4644V27.4644C18.82 32.2044 21.34 37.6244 25.11 40.0744M30.18 50.6344V57.1344L19.24 58.8844C11.05 60.0744 5 66.6844 5 74.4644V80.2044C5.02867 81.3777 5.46915 82.5035 6.24432 83.3847C7.01949 84.2659 8.07995 84.8463 9.24 85.0244L23.18 87.5444C33.6362 89.4244 44.3438 89.4244 54.8 87.5444L68.74 85.0244C69.9037 84.8506 70.9688 84.272 71.748 83.3904C72.5272 82.5088 72.9705 81.3806 73 80.2044V74.4644C73 66.6844 66.95 60.0744 58.76 58.8844L47.8 57.1344V50.6344" stroke="#00008F" stroke-width="2" stroke-linecap="round" stroke-linejoin="round"/>
<path d="M55.24 58.3243L57.72 68.6643L52.29 72.9543L56.66 75.4943L50.59 87.6943M42.43 88.7743L47.8 57.1343M22.82 58.3143L20.31 68.7543L25.74 73.0443L21.36 75.5843L27.44 87.7843M35.6 88.8643L30.23 57.2243M31.97 67.4943H46.04M90.06 30.0543H83.45V23.3843C83.4372 23.1279 83.3262 22.8862 83.14 22.7093C82.9538 22.5325 82.7068 22.434 82.45 22.4343H75C74.8757 22.4343 74.7527 22.459 74.638 22.5068C74.5233 22.5547 74.4192 22.6248 74.3318 22.7132C74.2443 22.8015 74.1753 22.9063 74.1287 23.0215C74.082 23.1367 74.0587 23.26 74.06 23.3843V30.0543H67.4C67.1435 30.0672 66.9019 30.1782 66.725 30.3643C66.5481 30.5505 66.4497 30.7976 66.45 31.0543V38.6843C66.4497 38.9411 66.5481 39.1882 66.725 39.3743C66.9019 39.5605 67.1435 39.6715 67.4 39.6843H74V46.3543C73.9995 46.6095 74.0966 46.8551 74.2714 47.041C74.4461 47.2269 74.6853 47.339 74.94 47.3543H82.5C82.7652 47.3543 83.0196 47.249 83.2071 47.0614C83.3946 46.8739 83.5 46.6195 83.5 46.3543V39.5943H90.11C90.3647 39.579 90.6039 39.4669 90.7786 39.281C90.9534 39.0951 91.0505 38.8495 91.05 38.5943V31.0143C91.0397 30.7578 90.9312 30.5151 90.7469 30.3364C90.5627 30.1577 90.3167 30.0567 90.06 30.0543Z" stroke="#00008F" stroke-width="2" stroke-linecap="round" stroke-linejoin="round"/>
</svg>

<svg width="96" height="96" viewBox="0 0 96 96" fill="none" xmlns="http://www.w3.org/2000/svg"><path d="M52.58 26.584c-3.65 0-7.15-2.82-8.56-6.13-2.28 4.79-5 8.59-12 8.59h-6.88v9.81c0 8.13 5 14.73 13.85 14.73s13.85-6.63 13.85-14.73v-12.27h-.26z" stroke="#00008F" stroke-width="2" stroke-linecap="round" stroke-linejoin="round"/><path d="M52.84 40.084a14.399 14.399 0 006.29-12.27v-7.36a5 5 0 00-5-4.91 18.15 18.15 0 00-15.82-8.59h-1.49a17.74 17.74 0 00-18 17.51v3c0 4.74 2.52 10.16 6.29 12.61m5.07 10.56v6.5l-10.94 1.75C11.05 60.074 5 66.684 5 74.464v5.74a5 5 0 004.24 4.82l13.94 2.52a89.342 89.342 0 0031.62 0l13.94-2.52a5 5 0 004.26-4.82v-5.74c0-7.78-6.05-14.39-14.24-15.58l-10.96-1.75v-6.5" stroke="#00008F" stroke-width="2" stroke-linecap="round" stroke-linejoin="round"/><path d="M55.24 58.324l2.48 10.34-5.43 4.29 4.37 2.54-6.07 12.2m-8.16 1.08l5.37-31.64m-24.98 1.18l-2.51 10.44 5.43 4.29-4.38 2.54 6.08 12.2m8.16 1.08l-5.37-31.64m1.74 10.27h14.07m44.02-37.44h-6.61v-6.67a1 1 0 00-1-.95H75a.941.941 0 00-.94.95v6.67H67.4a1 1 0 00-.95 1v7.63a1 1 0 00.95 1H74v6.67a1 1 0 00.94 1h7.56a1 1 0 001-1v-6.76h6.61a1 1 0 00.94-1v-7.58a1 1 0 00-.99-.96z" stroke="#00008F" stroke-width="2" stroke-linecap="round" stroke-linejoin="round"/></svg>
